X:1
T:Bethlehem’s Beautiful Star
T:Bethlehem’s Beautiful Star
T:Daniel Brink Towner
T:Julia Harriet Johnston, 1893
T:Public Domain Courtesy of the Cyber Hymnal™
T:Public Domain Courtesy of the Cyber Hymnal™
C:Daniel Brink Towner
Z:Public Domain
Z:Courtesy of the Cyber Hymnal™
%%score ( 1 2 ) ( 3 4 )
L:1/8
Q:1/4=87
M:6/8
K:F
V:1 treble 
V:2 treble 
V:3 bass 
V:4 bass 
V:1
 [FA][FA][FA] [FA][FG][FA] | B3 [EB]2 [FA] | [CG][CG][CG] [CG][CA][CB] | [CA]6 | %4
w: 1.~List to the beau- ti- ful|sto- ry Of|Beth- le- hem’s won- der- ful|star,|
w: 2.~All thro’ their jour- ney so|lone- ly The|pil- grims that came from the|East,|
w: 3.~Seek- ing the Sav- ior so|ho- ly, Who|came to be Is- ra- el’s|king,|
w: 4.~Je- sus, Thou star of the|morn- ing, Tho’|I’m but a child in Thy|sight,|
 [CA][CA][CA] [CA][CG][CA] | [CB]3 [CB]3 | [CG][CA][CB] [CA][CA]>[CG] | [CF]6 || %8
w: Shin- ing in ra- di- ant|glo- ry|O- ver the hea- vens a-|far.|
w: Fol- lowed this guid- ing light|on- ly,|Till the long wan- der- ing|ceased.|
w: Soon to His cra- dle so|low- ly,|Gold and frank- in- cense they|bring.|
w: Turn- ing from sin at Thy|warn- ing,|Glad- ly I fol- low Thy|light.|
"^Refrain" [Fc][EB][EB] [EB]3 | [Fd][Fc][Fc] [Fc]3 | [Ec][EG][EG] [FG][FA][F=B] | %11
w: |||
w: |||
w: Won- der- ful star!|Glor- i- ous star!|Guid- ing the wise men who|
w: |||
 [Fd][Ec][Fc] !fermata![Fc]3 | [Fc]>[Fd][Fc] [FA]3 | [FA]>[FB][FA] [CF]3 | %14
w: |||
w: |||
w: came from a- far,|Soft- ly thy light|shines thro’ the night,|
w: |||
 [FB][Fc][Fd] [Fc]>[EB][FA] | [EG][FA][GB] [FA]3 | [FB][Fc][Fd] [Fc]>[EB][EG] | F6 |] %18
w: ||||
w: ||||
w: Beth- le- hem’s beau- ti- ful,|beau- ti- ful star,|Beth- le- hem’s beau- ti- ful,|beau-|
w: ||||
V:2
 x6 | (G2 F) x3 | x6 | x6 | x6 | x6 | x6 | x6 || x6 | x6 | x6 | x6 | x6 | x6 | x6 | x6 | x6 | %17
 FCD C3 |] %18
V:3
 [F,C][F,C][F,C] [F,C][F,C][F,C] | C3 [C,C]2 [C,F,] | [C,E,][C,E,][C,E,] [C,E,][C,F,][C,G,] | F,6 | %4
 F,F,F, F,F,F, | [E,G,]2 [D,F,] [C,E,]3 | [C,E,][C,F,][C,G,] [C,F,][C,F,]>[C,B,] | [F,,F,A,]6 || %8
 [C,A,][C,G,][C,G,] [C,G,]3 | [F,B,][F,A,][F,A,] [F,A,]3 | G,[G,C][G,C] [G,=B,][G,B,]G, | %11
 [C,G,][C,G,][C,A,] !fermata![C,B,]3 | [F,A,]>[F,B,][F,A,] [F,C]3 | [F,C]>[F,D][F,C] [F,A,]3 | %14
 [D,B,][C,A,][B,,B,] [A,,A,C]>[G,,G,C][F,,F,C] | [C,C][C,C][C,C] [F,C]3 | %16
 [D,B,][C,A,][B,,B,] [C,A,]>[C,G,][C,B,] | A,A,B, A,3 |] %18
V:4
 x6 | (E,2 D,) x3 | x6 | F,6 | F,F,F, F,F,F, | x6 | x6 | x6 || x6 | x6 | G, x3 G, x | x6 | x6 | %13
 x6 | x6 | x6 | x6 | [F,,F,]6 |] %18

